icons/midnadark/actions/24/labplot-zoom-out-x.svg

<?xml version="1.0" encoding="UTF-8" standalone="no"?>
<!-- Created with Inkscape (http://www.inkscape.org/) -->

<svg
   xmlns:dc="http://purl.org/dc/elements/1.1/"
   xmlns:cc="http://creativecommons.org/ns#"
   xmlns:rdf="http://www.w3.org/1999/02/22-rdf-syntax-ns#"
   xmlns:svg="http://www.w3.org/2000/svg"
   xmlns="http://www.w3.org/2000/svg"
   xmlns:sodipodi="http://sodipodi.sourceforge.net/DTD/sodipodi-0.dtd"
   xmlns:inkscape="http://www.inkscape.org/namespaces/inkscape"
   width="22"
   height="22"
   id="svg4355"
   version="1.1"
   inkscape:version="0.91 r13725"
   sodipodi:docname="zoom-out-x.svg">
  <defs
     id="defs4357" />
  <sodipodi:namedview
     id="base"
     pagecolor="#ffffff"
     bordercolor="#666666"
     borderopacity="1.0"
     inkscape:pageopacity="0.0"
     inkscape:pageshadow="2"
     inkscape:zoom="35.090909"
     inkscape:cx="14.84715"
     inkscape:cy="11"
     inkscape:document-units="px"
     inkscape:current-layer="layer1"
     showgrid="true"
     width="0px"
     height="0px"
     fit-margin-top="0"
     fit-margin-left="0"
     fit-margin-right="0"
     fit-margin-bottom="0"
     inkscape:window-width="2560"
     inkscape:window-height="957"
     inkscape:window-x="0"
     inkscape:window-y="30"
     inkscape:window-maximized="1"
     inkscape:showpageshadow="false">
    <inkscape:grid
       type="xygrid"
       id="grid4112" />
    <sodipodi:guide
       position="2.0000011,19.999996"
       orientation="18,0"
       id="guide4118" />
    <sodipodi:guide
       position="2.0000011,1.9999962"
       orientation="0,18"
       id="guide4120" />
    <sodipodi:guide
       position="20.000001,1.9999962"
       orientation="-18,0"
       id="guide4122" />
    <sodipodi:guide
       position="20.000001,19.999996"
       orientation="0,-18"
       id="guide4124" />
    <sodipodi:guide
       position="3.0000011,18.999996"
       orientation="16,0"
       id="guide4126" />
    <sodipodi:guide
       position="3.0000011,2.9999962"
       orientation="0,16"
       id="guide4128" />
    <sodipodi:guide
       position="19.000001,2.9999962"
       orientation="-16,0"
       id="guide4130" />
    <sodipodi:guide
       position="19.000001,18.999996"
       orientation="0,-16"
       id="guide4132" />
  </sodipodi:namedview>
  <metadata
     id="metadata4360">
    <rdf:RDF>
      <cc:Work
         rdf:about="">
        <dc:format>image/svg+xml</dc:format>
        <dc:type
           rdf:resource="http://purl.org/dc/dcmitype/StillImage" />
        <dc:title />
      </cc:Work>
    </rdf:RDF>
  </metadata>
  <g
     inkscape:label="Capa 1"
     inkscape:groupmode="layer"
     id="layer1"
     transform="translate(-544.57141,-742.93359)">
    <path
       style="fill:#f2f2f2;fill-opacity:1;stroke:none"
       d="m 550.39983,755.6041 0.70711,0.70711 -1.62137,1.62137 4.65696,0 0,0.9999 -4.65696,0 1.62137,1.62137 -0.70711,0.70711 -2.82842,-2.82843 0.7071,-0.70711 2.12132,-2.12132 z"
       id="rect3354"
       inkscape:connector-curvature="0" />
    <path
       inkscape:connector-curvature="0"
       id="path4255-5-1"
       d="m 553.57151,747.93369 0,-1.99999 -1.99998,0 0,0.99999 0.99998,0 0,1 z"
       style="fill:#f2f2f2;fill-opacity:1;fill-rule:evenodd;stroke:none;stroke-width:1px;stroke-linecap:butt;stroke-linejoin:miter;stroke-opacity:1" />
    <path
       inkscape:connector-curvature="0"
       id="path4255-5-8"
       d="m 547.57153,747.93369 0,-1.99999 1.99998,0 0,0.99999 -0.99998,0 0,1 z"
       style="fill:#f2f2f2;fill-opacity:1;fill-rule:evenodd;stroke:none;stroke-width:1px;stroke-linecap:butt;stroke-linejoin:miter;stroke-opacity:1" />
    <path
       style="fill:#f2f2f2;fill-opacity:1;fill-rule:evenodd;stroke:none;stroke-width:1px;stroke-linecap:butt;stroke-linejoin:miter;stroke-opacity:1"
       d="m 553.57151,749.9337 0,1.99999 -1.99998,0 0,-0.99999 0.99998,0 0,-1 z"
       id="path3408"
       inkscape:connector-curvature="0" />
    <path
       style="fill:#f2f2f2;fill-opacity:1;fill-rule:evenodd;stroke:none;stroke-width:1px;stroke-linecap:butt;stroke-linejoin:miter;stroke-opacity:1"
       d="m 547.57153,749.9337 0,1.99999 1.99998,0 0,-0.99999 -0.99998,0 0,-1 z"
       id="path3410"
       inkscape:connector-curvature="0" />
    <path
       style="fill:#f2f2f2;fill-opacity:1;stroke:none"
       d="M 12 3 L 12 4 L 18 4 L 18 10 L 18 12 L 18 18 L 12 18 L 12 19 L 19 19 L 19 18 L 19 12 L 19 10 L 19 3 L 18 3 L 12 3 z "
       transform="translate(544.57141,742.93359)"
       id="path3350" />
  </g>
</svg>

<svg xmlns="http://www.w3.org/2000/svg" viewBox="0 0 22 22"><g transform="translate(-544.57-742.93)" fill="#f2f2f2"><path d="m550.4 755.6l.707.707-1.621 1.621h4.657v1h-4.657l1.621 1.621-.707.707-2.828-2.828.707-.707 2.121-2.121"/><g fill-rule="evenodd"><path d="m553.57 747.93v-2h-2v1h1v1z"/><path d="m547.57 747.93v-2h2v1h-1v1z"/><path d="m553.57 749.93v2h-2v-1h1v-1z"/><path d="m547.57 749.93v2h2v-1h-1v-1z"/></g><path d="m12 3v1h6v6 2 6h-6v1h7v-1-6-2-7h-1-6" transform="translate(544.57 742.93)"/></g></svg>
